X: 401
T: Zhishi qingnian chadui dao ancuen
L: 1/8
M: 2/4
K: Bb
d'd'2d' [I:setbarnb 1]| 
c'2c'2 | 
d' f' d' c' | 
b3c' | 
d'd'2d' | 
c' d' c' b | 
a c' a g | 
f4 | 
f3g | 
b2b d' | 
c'> d' c' f | 
g4 | 
c' bc'2 | 
d' f' a g | 
f d f g | 
b2a g | 
f g z d | 
c4 |]

@@@ Tune index: 9275
